X:2878
T:Isle of Harris Polka
O:england
C:Trad
S:Unknown, photocopy from John Wilson
I:speed 280
M:2/4
K:D
|:f4 fgfe | d2a2 a2gf | e2ef gfed | B4 B2AB |
d3e fedB | A2AB d2f2 | edef gfed | B4B4:|
|:defe defe | d2f2 gfed | edef gfed | B2e2 e2dB |
ABde fedB | A3B d2f2 | edef gfed | B4B4:|
